assets/icons/dictionary.svg

<?xml version="1.0" encoding="UTF-8" standalone="no"?>
<svg
   viewBox="0 0 24 24"
   height="24"
   id="svg7384"
   version="1.1"
   width="24"
   sodipodi:docname="dictionary.svg"
   inkscape:version="1.2 (1:1.2.1+202207142221+cd75a1ee6d)"
   xmlns:inkscape="http://www.inkscape.org/namespaces/inkscape"
   xmlns:sodipodi="http://sodipodi.sourceforge.net/DTD/sodipodi-0.dtd"
   xmlns="http://www.w3.org/2000/svg"
   xmlns:svg="http://www.w3.org/2000/svg"
   xmlns:rdf="http://www.w3.org/1999/02/22-rdf-syntax-ns#"
   xmlns:cc="http://creativecommons.org/ns#"
   xmlns:dc="http://purl.org/dc/elements/1.1/">
  <sodipodi:namedview
     id="namedview21"
     pagecolor="#ffffff"
     bordercolor="#666666"
     borderopacity="1.0"
     inkscape:pageshadow="2"
     inkscape:pageopacity="0.0"
     inkscape:pagecheckerboard="0"
     showgrid="true"
     width="24px"
     inkscape:zoom="27.999993"
     inkscape:cx="8.7678593"
     inkscape:cy="10.535717"
     inkscape:window-width="1920"
     inkscape:window-height="1043"
     inkscape:window-x="0"
     inkscape:window-y="0"
     inkscape:window-maximized="1"
     inkscape:current-layer="svg7384"
     inkscape:showpageshadow="2"
     inkscape:deskcolor="#d1d1d1">
    <inkscape:grid
       type="xygrid"
       id="grid837"
       dotted="false" />
    <inkscape:grid
       type="xygrid"
       id="grid839"
       dotted="true"
       spacingx="0.5"
       spacingy="0.5"
       empspacing="10" />
  </sodipodi:namedview>
  <metadata
     id="metadata20854">
    <rdf:RDF>
      <cc:Work
         rdf:about="">
        <dc:format>image/svg+xml</dc:format>
        <dc:type
           rdf:resource="http://purl.org/dc/dcmitype/StillImage" />
      </cc:Work>
    </rdf:RDF>
  </metadata>
  <defs
     id="defs7386">
    <linearGradient
       id="linearGradient5606"
       inkscape:swatch="solid">
      <stop
         id="stop5608"
         offset="0"
         style="stop-color:#000000;stop-opacity:1;" />
    </linearGradient>
    <linearGradient
       id="linearGradient4526"
       inkscape:swatch="solid">
      <stop
         id="stop4528"
         offset="0"
         style="stop-color:#ffffff;stop-opacity:1;" />
    </linearGradient>
    <linearGradient
       id="linearGradient3600-4"
       inkscape:swatch="gradient">
      <stop
         id="stop3602-7"
         offset="0"
         style="stop-color:#f4f4f4;stop-opacity:1" />
      <stop
         id="stop3604-6"
         offset="1"
         style="stop-color:#dbdbdb;stop-opacity:1" />
    </linearGradient>
  </defs>
  <g
     id="layer9"
     label="status"
     style="display:inline"
     transform="translate(-613.0002,327)" />
  <g
     id="layer4"
     style="display:inline"
     transform="translate(-372,-39.999996)" />
  <g
     id="g1812"
     style="display:inline"
     transform="translate(-372,-39.999996)" />
  <g
     id="g6217"
     style="display:inline"
     transform="translate(-372,-39.999996)" />
  <g
     id="layer3"
     style="display:inline"
     transform="translate(-372,-39.999996)" />
  <g
     id="g1833"
     style="display:inline"
     transform="translate(-372,-39.999996)" />
  <g
     id="layer1"
     style="display:inline"
     transform="translate(-372,-39.999996)" />
  <path
     id="path874"
     style="color:#000000;fill:#808080;fill-opacity:1"
     d="M 7.1289062 2 C 5.8824029 2.00912 4.988912 2.0719503 4.2773438 2.4277344 C 3.8029647 2.6649248 3.4414415 3.0749039 3.25 3.5917969 C 3.0585584 4.1086889 3 4.7222256 3 5.5 L 3 18.5 C 3 19.277774 3.0585582 19.891312 3.25 20.408203 C 3.4414415 20.925097 3.8029647 21.335075 4.2773438 21.572266 C 5.2261015 22.046643 6.500008 22 8.5 22 L 15.5 22 C 16.999995 22 18.056053 22.050739 18.882812 21.554688 C 19.296194 21.30666 19.602753 20.89878 19.771484 20.392578 C 19.940218 19.886379 20 19.277774 20 18.5 L 20 5.5 C 20 4.7222256 19.94022 4.1136219 19.771484 3.6074219 C 19.602753 3.1012209 19.296194 2.6933401 18.882812 2.4453125 C 18.056053 1.9492615 16.999995 2 15.5 2 L 8.5 2 C 8.000002 2 7.5444074 1.99696 7.1289062 2 z M 8.5 3 L 15.5 3 C 16.999996 3 17.943952 3.0507463 18.367188 3.3046875 C 18.578804 3.4316563 18.70975 3.5862819 18.822266 3.9238281 C 18.93478 4.2613745 19 4.7777814 19 5.5 L 19 18.5 C 19 19.222218 18.93478 19.738625 18.822266 20.076172 C 18.70975 20.413719 18.578804 20.568345 18.367188 20.695312 C 17.943952 20.949254 16.999996 21 15.5 21 L 8.5 21 C 7.937084 21 7.4425111 20.995831 7 20.984375 L 7 3.015625 C 7.4425111 3.0041688 7.937084 3 8.5 3 z " />
  <path
     id="path916"
     d="m 14.58884,12.00001 c -0.432105,0 -0.80366,0.03014 -1.114761,0.09063 -0.302465,0.06049 -0.527173,0.125291 -0.674094,0.194424 l 0.116615,0.738898 c 0.112349,-0.04317 0.289492,-0.09928 0.53147,-0.168414 0.241978,-0.06914 0.609373,-0.10387 1.101965,-0.10387 0.345672,0 0.622107,0.05631 0.829503,0.168632 0.216053,0.103662 0.380327,0.24639 0.492676,0.427861 0.120984,0.172836 0.198657,0.371597 0.233218,0.596285 0.03462,0.216053 0.05183,0.440552 0.05183,0.673885 v 0.414867 c -0.03462,-0.01731 -0.09939,-0.03452 -0.194424,-0.05183 -0.08645,-0.02597 -0.194412,-0.04755 -0.324042,-0.06476 -0.120984,-0.02597 -0.250572,-0.04317 -0.388846,-0.05183 -0.12963,-0.01731 -0.254858,-0.02597 -0.375863,-0.02597 -0.406169,0 -0.782063,0.03879 -1.127756,0.116614 -0.345671,0.0778 -0.643902,0.203215 -0.894505,0.376051 -0.250624,0.1642 -0.445016,0.375842 -0.583291,0.63509 -0.138264,0.259269 -0.207428,0.57038 -0.207428,0.933332 0,0.380243 0.06049,0.704442 0.181429,0.972346 0.129619,0.259248 0.302424,0.475249 0.518466,0.648084 0.224698,0.164191 0.484082,0.285071 0.777922,0.362838 0.302466,0.0778 0.630815,0.116833 0.985132,0.116833 0.276529,0 0.544454,-0.01314 0.803713,-0.039 0.267904,-0.01731 0.509851,-0.04318 0.725904,-0.0778 0.216042,-0.03452 0.406075,-0.06466 0.570276,-0.09063 0.16419,-0.03462 0.289637,-0.06487 0.37605,-0.09083 v -4.225784 c 0,-0.354328 -0.04328,-0.682875 -0.129619,-0.985351 -0.08645,-0.302455 -0.22474,-0.561651 -0.414856,-0.777693 -0.190126,-0.224688 -0.440803,-0.397492 -0.751913,-0.518476 -0.302465,-0.12963 -0.674011,-0.194434 -1.114751,-0.194434 z m 0.259228,3.564695 c 0.362962,0 0.648116,0.02597 0.855523,0.0778 0.207397,0.04317 0.358593,0.08645 0.453651,0.129608 v 2.359329 c -0.172836,0.03462 -0.384467,0.06466 -0.63507,0.09063 -0.241978,0.01731 -0.527142,0.02597 -0.855523,0.02597 -0.267904,0 -0.509862,-0.02159 -0.725904,-0.06476 -0.207396,-0.05194 -0.388919,-0.129723 -0.544495,-0.233416 -0.146889,-0.103662 -0.263608,-0.241822 -0.350031,-0.414658 -0.0778,-0.172846 -0.116625,-0.384686 -0.116625,-0.635299 0,-0.285174 0.06049,-0.514263 0.181429,-0.687088 0.120984,-0.172836 0.276539,-0.306606 0.466656,-0.401674 0.190126,-0.103662 0.397606,-0.168696 0.622294,-0.194622 0.224688,-0.03462 0.440677,-0.05183 0.648085,-0.05183 z"
     style="font-style:normal;font-weight:normal;font-size:118.519px;line-height:1000%;font-family:sans-serif;letter-spacing:0px;word-spacing:0px;display:inline;fill:#808080;fill-opacity:1;stroke:none;stroke-width:0.30024px;stroke-linecap:butt;stroke-linejoin:miter;stroke-opacity:1;enable-background:new"
     inkscape:connector-curvature="0"
     sodipodi:nodetypes="cccccscccsccccscccscccsccccsccccccccccscccsccccc" />
</svg>

<svg height="24" width="24" xmlns="http://www.w3.org/2000/svg"><path style="color:#000;fill:gray;fill-opacity:1" d="M7.129 2c-1.247.01-2.14.072-2.852.428A2.097 2.097 0 0 0 3.25 3.592C3.059 4.109 3 4.722 3 5.5v13c0 .778.059 1.391.25 1.908.191.517.553.927 1.027 1.164.95.475 2.223.428 4.223.428h7c1.5 0 2.556.05 3.383-.445.413-.248.72-.656.888-1.162.17-.507.229-1.115.229-1.893v-13c0-.778-.06-1.386-.229-1.893-.168-.506-.475-.914-.888-1.162C18.056 1.95 17 2 15.5 2h-7c-.5 0-.956-.003-1.371 0zM8.5 3h7c1.5 0 2.444.05 2.867.305.212.127.343.281.455.619.113.337.178.854.178 1.576v13c0 .722-.065 1.239-.178 1.576-.112.338-.243.492-.455.62C17.944 20.948 17 21 15.5 21h-7c-.563 0-1.057-.004-1.5-.016V3.016C7.443 3.004 7.937 3 8.5 3z"/><path d="M14.589 12c-.432 0-.804.03-1.115.09a3.163 3.163 0 0 0-.674.195l.117.739c.112-.043.29-.1.531-.168.242-.07.61-.104 1.102-.104.346 0 .622.056.83.168.216.104.38.247.492.428.121.173.199.372.233.596.035.217.052.441.052.674v.415a.83.83 0 0 0-.194-.052 2.12 2.12 0 0 0-.324-.064 2.64 2.64 0 0 0-.39-.052 2.84 2.84 0 0 0-.375-.026 5.19 5.19 0 0 0-1.128.116 2.541 2.541 0 0 0-.894.376c-.25.165-.445.376-.583.636-.139.259-.208.57-.208.933 0 .38.06.704.182.972.13.26.302.476.518.648.225.165.484.285.778.363.302.078.63.117.985.117.277 0 .545-.013.804-.039.268-.017.51-.043.726-.078l.57-.09a5.08 5.08 0 0 0 .376-.091v-4.226a3.55 3.55 0 0 0-.13-.985 1.984 1.984 0 0 0-.414-.778 1.832 1.832 0 0 0-.752-.519c-.303-.13-.674-.194-1.115-.194zm.26 3.565c.362 0 .647.026.855.078.207.043.358.086.453.13v2.358a6.965 6.965 0 0 1-.635.091c-.242.017-.527.026-.855.026-.268 0-.51-.022-.726-.065a1.732 1.732 0 0 1-.545-.233 1.097 1.097 0 0 1-.35-.415 1.545 1.545 0 0 1-.116-.635c0-.285.06-.514.181-.687.121-.173.277-.307.467-.402.19-.104.397-.169.622-.194.225-.035.44-.052.648-.052z" style="font-style:normal;font-weight:400;font-size:118.519px;line-height:1000%;font-family:sans-serif;letter-spacing:0;word-spacing:0;display:inline;fill:gray;fill-opacity:1;stroke:none;stroke-width:.30024px;stroke-linecap:butt;stroke-linejoin:miter;stroke-opacity:1;enable-background:new"/></svg>
